X: 13276
T: Five Pound Flute, The
R: jig
M: 6/8
K: Dmixolydian
DED FDA|~D3 CEG|DED FAB|cBc GEC|
~D3 FDA|~D3 CEG|cBc dcA|GED CEF:|
|:d3 ~f3|gfg afd|AaA gAf|~e3 edA|
~B3 def|efe fdB|cBc ecA|GED CEF:|

